keyboard-f11.svg

<svg fill="currentColor" viewBox="0 0 24 24"><path d="M3 7h6v2H5v2h3v2H5v4H3zm8 0h4v10h-2V9h-2zm6 0h4v10h-2V9h-2z"/></svg>

<svg  viewBox="0 0 24 24" fill="currentColor"><path  d="M3 7H9V9H5V11H8V13H5V17H3V7M11 7H15V17H13V9H11V7M17 7H21V17H19V9H17V7Z"/></svg>
